packages/ui-icons/src/Basic/32/Transaction_32.svg

<svg xmlns="http://www.w3.org/2000/svg" viewBox="0 0 40 40"><path d="M6 4v32h23a7 7 0 0 0 1-13.92V4Zm2 30V6h20v16.08A7 7 0 0 0 24.11 34Zm21 0a5 5 0 1 1 3.27-8.75L29 28.74l-1.27-1.41-1.49 1.34L28.35 31h1.28l3.86-4.14A4.94 4.94 0 0 1 34 29a5 5 0 0 1-5 5Zm-7-22H12v-2h10Zm2 6H12v-2h12Zm-12 4h6v2h-6Z"/></svg>

<svg id="Ready" xmlns="http://www.w3.org/2000/svg" viewBox="0 0 40 40"><title>Megaicons_work_32_1.8_cp</title><path d="M6,4V36H29a7,7,0,0,0,1-13.92V4ZM8,34V6H28V22.08A7,7,0,0,0,24.11,34Zm21,0a5,5,0,1,1,3.27-8.75L29,28.74l-1.27-1.41-1.49,1.34L28.35,31h1.28l3.86-4.14A4.94,4.94,0,0,1,34,29,5,5,0,0,1,29,34ZM22,12H12V10H22Zm2,6H12V16H24ZM12,22h6v2H12Z"/></svg>
